assets/images/com-icon1.svg

<svg width="65" height="55" viewBox="0 0 65 55" fill="none" xmlns="http://www.w3.org/2000/svg">
<path fill-rule="evenodd" clip-rule="evenodd" d="M65 0.699951V27.7C65 42.6122 53.0182 54.7 38.235 54.7V43.1285C46.6812 43.1285 53.5293 36.2203 53.5293 27.7H38.235V0.699951H65ZM0 54.7V43.1285C8.44618 43.1285 15.2943 36.2203 15.2943 27.7H0V0.699951H26.765V27.7C26.765 42.6122 14.7825 54.7 0 54.7Z" fill="#9C8679"/>
</svg>

<svg width="65" height="55" fill="none" xmlns="http://www.w3.org/2000/svg"><path fill-rule="evenodd" clip-rule="evenodd" d="M65 .7v27c0 14.912-11.982 27-26.765 27V43.128c8.446 0 15.294-6.908 15.294-15.428H38.235V.7H65zm-65 54V43.128c8.446 0 15.294-6.908 15.294-15.428H0V.7h26.765v27c0 14.912-11.982 27-26.765 27z" fill="#9C8679"/></svg>
